X: 1629
T: Off To California
M:2/4
L:1/16
B:O'Neills 1629
N:"setting 2","collected by J. O'Neill"
Z:Transcribed by Nick Terhorst, nickte@microsoft.com
K:G
D2|G>FG>B A>GE>F|G>FG>B e2dd|e>dB>d c>AE>F|G>BA>G E2D2|
|G>FG>B A>GE>F|G>FG>B e2dd|e>dB>d c>AE>F|G2B2 G2:|
|:d2|e>^de>f g>fg>B|G>BA>G E2D2|G>FG>B e>dB>G|A>^GA>B A2d2|
|e>^de>f g>fg>B|G>BA>G E2D2|G>FG>B e>dB>G|A2F2 G2:|


